svg/content_save_all_outline.svg

<?xml version="1.0" encoding="UTF-8"?><!DOCTYPE svg PUBLIC "-//W3C//DTD SVG 1.1//EN" "http://www.w3.org/Graphics/SVG/1.1/DTD/svg11.dtd"><svg xmlns="http://www.w3.org/2000/svg" xmlns:xlink="http://www.w3.org/1999/xlink" version="1.1" id="mdi-content-save-all-outline" width="24" height="24" viewBox="0 0 24 24"><path d="M1 7H3V21H17V23H3C1.9 23 1 22.11 1 21V7M19 1H7C5.89 1 5 1.9 5 3V17C5 18.1 5.89 19 7 19H21C22.1 19 23 18.1 23 17V5L19 1M21 17H7V3H18.17L21 5.83V17M14 10C12.34 10 11 11.34 11 13S12.34 16 14 16 17 14.66 17 13 15.66 10 14 10M8 4H17V8H8V4Z" /></svg>

<svg xmlns="http://www.w3.org/2000/svg" viewBox="0 0 24 24"><path d="M1 7h2v14h14v2H3a2 2 0 0 1-2-2zm18-6H7a2 2 0 0 0-2 2v14a2 2 0 0 0 2 2h14c1.1 0 2-.9 2-2V5zm2 16H7V3h11.17L21 5.83zm-7-7c-1.66 0-3 1.34-3 3s1.34 3 3 3 3-1.34 3-3-1.34-3-3-3M8 4h9v4H8z"/></svg>
